X:79
%%etbk:tnset id:27,pos:2,rep:3x,ant:
%%etbk:wsite http://www.thesession.org/tunes/display/102
%%etbk:pldat 2015-03-24T16:33,2014-04-30T16:45,2014-04-27T14:05,2014-02-05T16:39,2013-05-22T15:54,2013-05-15T16:06,2013-04-30T16:09
T: Johnny's Wedding
T: Sean Frank's
H: Created 2013-02-19 /  Last Modified 2014-02-05
M: 4/4
L: 1/8
R: reel
K: Edor
EF|: "em"!3!G/F/E!5!BE GEBE | "bm"!2!FD!4!AD FDAD | "em"!3!G/F/E!5!BE GEBE | "bm"!4!AGFG "em"!1!E3F |
"em"!3!GE!5!BE GEBE | "bm"!4!ABAG !2!F!1!D-D!2!F | "em"!3!GFE!2!F !1!G!3!B!5!d!3!B | "bm"!2!A!1!G!2!FG "em"!1!E3F :|
|: "G"!1!G2 G!2!F !1!G!3!BdB | "D"!2!A!3!B!2!A!1!G !2!FG!2!A2 | "em"!3!B!5!e!2!ed !2!efge | "bm"!3!fedf "em"!2!e3e |
"em"!2!efe!1!d !2!BcdB | "bm"!1!AB!1!A!3!G !2!F!1!D-D!2!F | "em"!3!GFE!2!F !1!G!3!B!5!d!3!B | "bm"!2!A!1!G!2!FG "em"!1!E3F :|


